IMB-X-Files/The-Ambassadors-Assets/660bfaf5e13d3805c14f8dcc_Frame3.svg

<svg fill="none" height="24" viewBox="0 0 24 24" width="24" xmlns="http://www.w3.org/2000/svg"><path d="m20 12v-6.251c.0001-.07894-.0155-.15711-.0457-.23004s-.0745-.13918-.1303-.19496l-3.148-3.148c-.1124-.11255-.2649-.17586-.424-.176h-11.652c-.15913 0-.31174.06321-.42426.17574-.11253.11252-.17574.26513-.17574.42426v18.8c0 .1591.06321.3117.17574.4243.11252.1125.26513.1757.42426.1757h6.4m-3-12h8m-8-4h4m-4 8h3m5-11.5v2.9c0 .15913.0632.31174.1757.42426.1126.11253.2652.17574.4243.17574h2.9m-3.194 11.113.909-1.927c.0245-.0551.0645-.1019.1151-.1347.0506-.0329.1096-.0503.1699-.0503s.1193.0174.1699.0503c.0506.0328.0906.0796.1151.1347l.91 1.927 2.032.311c.261.04.365.376.177.568l-1.471 1.5.347 2.118c.044.272-.229.48-.462.351l-1.818-1-1.818 1c-.234.129-.506-.079-.462-.351l.347-2.118-1.47-1.5c-.19-.192-.085-.528.176-.568z" stroke="#fff" stroke-linecap="square" stroke-width="1.5"/></svg>

<svg width="24" height="24" viewBox="0 0 24 24" fill="none" xmlns="http://www.w3.org/2000/svg">
    <path
        d="M20 12V5.749C20.0001 5.67006 19.9845 5.59189 19.9543 5.51896C19.9241 5.44603 19.8798 5.37978 19.824 5.324L16.676 2.176C16.5636 2.06345 16.4111 2.00014 16.252 2H4.6C4.44087 2 4.28826 2.06321 4.17574 2.17574C4.06321 2.28826 4 2.44087 4 2.6V21.4C4 21.5591 4.06321 21.7117 4.17574 21.8243C4.28826 21.9368 4.44087 22 4.6 22H11M8 10H16M8 6H12M8 14H11M16 2.5V5.4C16 5.55913 16.0632 5.71174 16.1757 5.82426C16.2883 5.93679 16.4409 6 16.6 6H19.5M16.306 17.113L17.215 15.186C17.2395 15.1309 17.2795 15.0841 17.3301 15.0513C17.3807 15.0184 17.4397 15.001 17.5 15.001C17.5603 15.001 17.6193 15.0184 17.6699 15.0513C17.7205 15.0841 17.7605 15.1309 17.785 15.186L18.695 17.113L20.727 17.424C20.988 17.464 21.092 17.8 20.904 17.992L19.433 19.492L19.78 21.61C19.824 21.882 19.551 22.09 19.318 21.961L17.5 20.961L15.682 21.961C15.448 22.09 15.176 21.882 15.22 21.61L15.567 19.492L14.097 17.992C13.907 17.8 14.012 17.464 14.273 17.424L16.306 17.113Z"
        stroke="white" stroke-width="1.5" stroke-linecap="square" />
</svg>
